X:1
T: Inverary
T: 8 x 32S 3C
P: Inveraray
C: Kerr's Third
C: arr. T. Traub 12-7-1997
L: 1/8
M: 4/4
K: D
|: B|"D"A<dd>e f>ed>B|"D"A<d"Bm"d>f "G"e>d"A"e<f|"D"A<dd>e f>ed>A|"G"B<d"A"A>G "D"F<D D:|
|: f|"D"a>fd>A "G"B<d"D"A<F|"D"a>fd>A "Em"B<e"A"e>f|"D"a>fd>A "G"B<d"D"A<F|"G"B<d"A"A>G |"D"F<D D :|
